src/images/Thermostat_CheckUp-01.svg

<svg width="119" height="159" viewBox="0 0 119 159" fill="none" xmlns="http://www.w3.org/2000/svg">
<g clip-path="url(#clip0)">
<path d="M30.9267 11.6014C26.6609 5.19411 18.0087 3.45809 11.6014 7.72387C5.19412 11.9897 3.4581 20.6419 7.72388 27.0491L72.184 123.869C76.4498 130.276 85.102 132.013 91.5093 127.747C97.9165 123.481 99.6526 114.829 95.3868 108.421L30.9267 11.6014Z" fill="#F8F6E8"/>
<path d="M99.1855 149.252C100.878 151.794 104.31 152.483 106.851 150.79C109.393 149.098 110.081 145.666 108.389 143.125L95.745 124.133C94.0529 121.591 90.6209 120.903 88.0793 122.595C85.5378 124.287 84.8492 127.719 86.5413 130.261L99.1855 149.252Z" fill="#F8F6E8"/>
<g style="mix-blend-mode:multiply" opacity="0.65">
<g style="mix-blend-mode:multiply" opacity="0.65">
<path d="M11.6727 7.83127C10.5509 8.57857 9.54386 9.48511 8.68312 10.5224C11.676 9.26491 15.013 9.08707 18.1226 10.0193C21.2322 10.9516 23.921 12.936 25.7284 15.6326L90.1885 112.453C91.8433 114.954 92.6502 117.921 92.4903 120.916C92.3305 123.911 91.2122 126.776 89.3006 129.087C90.0971 128.747 90.8604 128.335 91.5806 127.854C94.6486 125.798 96.7785 122.612 97.505 118.991C98.2316 115.37 97.4957 111.609 95.4581 108.529L30.998 11.7088C28.9423 8.64072 25.756 6.51083 22.1351 5.78431C18.5141 5.0578 14.7528 5.79369 11.6727 7.83127Z" fill="#F8EEC8"/>
</g>
</g>
<path d="M106.851 150.79C105.634 151.601 104.145 151.896 102.71 151.611C101.275 151.326 100.012 150.484 99.197 149.27L90.3288 135.949L99.5326 129.822L108.401 143.142C109.207 144.363 109.496 145.853 109.206 147.286C108.915 148.72 108.069 149.98 106.851 150.79Z" fill="#C0D5D0"/>
<g style="mix-blend-mode:multiply" opacity="0.59">
<g style="mix-blend-mode:multiply" opacity="0.59">
<path d="M97.7539 130.876L105.595 142.654C106.405 143.875 106.698 145.368 106.411 146.805C106.123 148.243 105.278 149.508 104.06 150.323C103.399 150.758 102.652 151.043 101.87 151.161C102.966 151.586 104.168 151.65 105.302 151.344C106.436 151.038 107.443 150.378 108.176 149.46C108.909 148.543 109.331 147.415 109.379 146.241C109.426 145.067 109.099 143.909 108.443 142.934L99.5972 129.649L97.7539 130.876Z" fill="#C0D5D0"/>
</g>
</g>
<path d="M18.6814 18.3586C18.8717 18.2319 19.1046 18.186 19.3288 18.2309C19.5529 18.2759 19.75 18.4081 19.8767 18.5984L95.6852 132.464L94.2501 133.419L18.4416 19.5539C18.3789 19.4596 18.3353 19.354 18.3134 19.2429C18.2915 19.1318 18.2917 19.0175 18.314 18.9065C18.3362 18.7956 18.3801 18.69 18.4432 18.596C18.5062 18.502 18.5872 18.4213 18.6814 18.3586Z" fill="#F3C74A"/>
<g opacity="0.57">
<path opacity="0.57" d="M28.8806 16.2687L13.9836 26.1868C13.668 26.3969 13.5825 26.8231 13.7926 27.1387L13.7954 27.143C14.0056 27.4586 14.4318 27.5442 14.7474 27.334L29.6444 17.416C29.9601 17.2059 30.0456 16.7797 29.8354 16.464L29.8326 16.4598C29.6225 16.1441 29.1962 16.0586 28.8806 16.2687Z" fill="#F3C74A"/>
<path opacity="0.57" d="M37.2566 28.8499L22.3596 38.768C22.0439 38.9781 21.9584 39.4043 22.1686 39.7199L22.1714 39.7242C22.3815 40.0398 22.8078 40.1253 23.1234 39.9152L38.0204 29.9972C38.336 29.787 38.4216 29.3608 38.2114 29.0452L38.2086 29.0409C37.9984 28.7253 37.5722 28.6398 37.2566 28.8499Z" fill="#F3C74A"/>
<path opacity="0.57" d="M45.3494 41.6198L30.4523 51.5379C30.1367 51.748 30.0512 52.1742 30.2613 52.4898L30.2642 52.4941C30.4743 52.8097 30.9005 52.8952 31.2161 52.6851L46.1132 42.7671C46.4288 42.5569 46.5143 42.1307 46.3042 41.8151L46.3013 41.8108C46.0912 41.4952 45.665 41.4097 45.3494 41.6198Z" fill="#F3C74A"/>
<path opacity="0.57" d="M53.7254 54.2008L38.8283 64.1188C38.5127 64.3289 38.4272 64.7551 38.6373 65.0707L38.6402 65.075C38.8503 65.3907 39.2765 65.4762 39.5921 65.266L54.4892 55.348C54.8048 55.1379 54.8903 54.7117 54.6802 54.3961L54.6773 54.3918C54.4672 54.0761 54.041 53.9906 53.7254 54.2008Z" fill="#F3C74A"/>
<path opacity="0.57" d="M62.0984 66.7775L47.2014 76.6956C46.8857 76.9057 46.8002 77.3319 47.0104 77.6475L47.0132 77.6518C47.2233 77.9674 47.6495 78.053 47.9652 77.8428L62.8622 67.9248C63.1778 67.7147 63.2633 67.2885 63.0532 66.9728L63.0504 66.9685C62.8402 66.6529 62.414 66.5674 62.0984 66.7775Z" fill="#F3C74A"/>
<path opacity="0.57" d="M70.4749 79.3586L55.5778 89.2766C55.2622 89.4868 55.1767 89.913 55.3868 90.2286L55.3897 90.2329C55.5998 90.5485 56.026 90.634 56.3416 90.4239L71.2387 80.5058C71.5543 80.2957 71.6398 79.8695 71.4297 79.5539L71.4268 79.5496C71.2167 79.234 70.7905 79.1485 70.4749 79.3586Z" fill="#F3C74A"/>
<path opacity="0.57" d="M78.8508 91.9398L63.9538 101.858C63.6382 102.068 63.5527 102.494 63.7628 102.81L63.7657 102.814C63.9758 103.13 64.402 103.215 64.7176 103.005L79.6147 93.087C79.9303 92.8769 80.0158 92.4507 79.8057 92.1351L79.8028 92.1308C79.5927 91.8152 79.1665 91.7296 78.8508 91.9398Z" fill="#F3C74A"/>
</g>
<g opacity="0.57">
<path opacity="0.57" d="M29.3053 25.2882L21.7258 30.3345C21.4102 30.5446 21.3246 30.9708 21.5348 31.2864L21.5376 31.2907C21.7478 31.6064 22.174 31.6919 22.4896 31.4817L30.0692 26.4355C30.3848 26.2253 30.4703 25.7991 30.2602 25.4835L30.2573 25.4792C30.0472 25.1636 29.621 25.0781 29.3053 25.2882Z" fill="#F3C74A"/>
<path opacity="0.57" d="M37.6808 37.8698L30.1013 42.916C29.7856 43.1262 29.7001 43.5524 29.9103 43.868L29.9131 43.8723C30.1232 44.1879 30.5495 44.2734 30.8651 44.0633L38.4446 39.017C38.7603 38.8069 38.8458 38.3807 38.6356 38.0651L38.6328 38.0608C38.4227 37.7452 37.9965 37.6596 37.6808 37.8698Z" fill="#F3C74A"/>
<path opacity="0.57" d="M45.9025 50.5538L38.3229 55.6001C38.0073 55.8102 37.9218 56.2364 38.1319 56.5521L38.1348 56.5564C38.3449 56.872 38.7711 56.9575 39.0867 56.7474L46.6663 51.7011C46.9819 51.491 47.0675 51.0648 46.8573 50.7491L46.8545 50.7449C46.6443 50.4292 46.2181 50.3437 45.9025 50.5538Z" fill="#F3C74A"/>
<path opacity="0.57" d="M54.2785 63.1349L46.6989 68.1812C46.3833 68.3913 46.2978 68.8175 46.5079 69.1331L46.5108 69.1374C46.7209 69.453 47.1471 69.5385 47.4627 69.3284L55.0423 64.2821C55.3579 64.072 55.4434 63.6458 55.2333 63.3302L55.2304 63.3259C55.0203 63.0103 54.5941 62.9248 54.2785 63.1349Z" fill="#F3C74A"/>
<path opacity="0.57" d="M62.6515 75.7116L55.072 80.7578C54.7563 80.968 54.6708 81.3942 54.881 81.7098L54.8838 81.7141C55.094 82.0297 55.5202 82.1152 55.8358 81.9051L63.4153 76.8588C63.731 76.6487 63.8165 76.2225 63.6063 75.9069L63.6035 75.9026C63.3934 75.587 62.9672 75.5014 62.6515 75.7116Z" fill="#F3C74A"/>
<path opacity="0.57" d="M71.028 88.2926L63.4484 93.3389C63.1328 93.549 63.0473 93.9752 63.2574 94.2908L63.2603 94.2951C63.4704 94.6107 63.8966 94.6963 64.2122 94.4861L71.7918 89.4399C72.1074 89.2297 72.1929 88.8035 71.9828 88.4879L71.98 88.4836C71.7698 88.168 71.3436 88.0825 71.028 88.2926Z" fill="#F3C74A"/>
<path opacity="0.57" d="M79.404 100.874L71.8244 105.92C71.5088 106.13 71.4233 106.556 71.6334 106.872L71.6363 106.876C71.8464 107.192 72.2726 107.277 72.5882 107.067L80.1678 102.021C80.4834 101.811 80.5689 101.385 80.3588 101.069L80.3559 101.065C80.1458 100.749 79.7196 100.664 79.404 100.874Z" fill="#F3C74A"/>
</g>
<path d="M44.1419 56.6001C44.3322 56.4734 44.565 56.4275 44.7892 56.4725C45.0134 56.5175 45.2105 56.6497 45.3372 56.84L95.7799 132.606L94.3447 133.561L43.9021 57.7954C43.7753 57.6051 43.7294 57.3723 43.7744 57.1481C43.8194 56.924 43.9516 56.7268 44.1419 56.6001Z" fill="#EA4143"/>
<path d="M95.3176 123.351L93.457 124.59L97.7481 131.035L99.6086 129.796L95.3176 123.351Z" fill="#F8EEC8"/>
</g>
<defs>
<clipPath id="clip0">
<rect width="27.8748" height="171.874" fill="white" transform="translate(0 15.4478) rotate(-33.6546)"/>
</clipPath>
</defs>
</svg>

<svg width="119" height="159" viewBox="0 0 119 159" fill="none" xmlns="http://www.w3.org/2000/svg"><g clip-path="url(#clip0)"><path d="M30.927 11.601C26.66 5.194 18.009 3.458 11.6 7.724 5.194 11.99 3.458 20.642 7.724 27.049l64.46 96.82c4.266 6.407 12.918 8.144 19.325 3.878s8.144-12.918 3.878-19.326l-64.46-96.82z" fill="#F8F6E8"/><path d="M99.186 149.252a5.527 5.527 0 0 0 7.665 1.538 5.527 5.527 0 0 0 1.538-7.665l-12.644-18.992a5.528 5.528 0 1 0-9.204 6.128l12.645 18.991z" fill="#F8F6E8"/><path d="M11.673 7.831a13.895 13.895 0 0 0-2.99 2.691 13.994 13.994 0 0 1 17.045 5.11l64.46 96.821a13.986 13.986 0 0 1-.887 16.634 14 14 0 0 0 2.28-1.233 13.98 13.98 0 0 0 3.877-19.325l-64.46-96.82A13.979 13.979 0 0 0 11.673 7.83z" fill="#F8EEC8" opacity=".65"/><path d="M106.851 150.79a5.526 5.526 0 0 1-7.654-1.52l-8.868-13.321 9.204-6.127 8.868 13.32a5.53 5.53 0 0 1-1.55 7.648z" fill="#C0D5D0"/><path d="M97.754 130.876l7.841 11.778a5.545 5.545 0 0 1-1.535 7.669 5.465 5.465 0 0 1-2.19.838 5.516 5.516 0 0 0 7.509-4.92 5.526 5.526 0 0 0-.936-3.307l-8.846-13.285-1.843 1.227z" fill="#C0D5D0" opacity=".59"/><path d="M18.681 18.359a.863.863 0 0 1 1.196.24l75.808 113.865-1.435.955L18.442 19.554a.863.863 0 0 1 .24-1.195z" fill="#F3C74A"/><g opacity=".57" fill="#F3C74A"><path opacity=".57" d="M28.88 16.269l-14.896 9.918a.687.687 0 0 0-.191.952l.002.004c.21.316.637.401.952.191l14.897-9.918a.686.686 0 0 0 .191-.952l-.002-.004a.687.687 0 0 0-.952-.191zM37.257 28.85L22.36 38.768a.686.686 0 0 0-.191.952l.002.004c.21.316.637.401.952.191l14.897-9.918a.687.687 0 0 0 .191-.952l-.002-.004a.687.687 0 0 0-.952-.191zM45.35 41.62l-14.898 9.918a.687.687 0 0 0-.19.952l.002.004c.21.316.637.401.952.191l14.897-9.918a.687.687 0 0 0 .191-.952l-.003-.004a.687.687 0 0 0-.952-.191zM53.725 54.2L38.828 64.12a.687.687 0 0 0-.19.952l.002.004c.21.316.636.401.952.191l14.897-9.918a.687.687 0 0 0 .191-.952l-.003-.004a.686.686 0 0 0-.952-.191zM62.098 66.778l-14.897 9.918a.686.686 0 0 0-.19.951l.002.005c.21.315.637.401.952.19l14.897-9.917a.687.687 0 0 0 .191-.952l-.003-.004a.687.687 0 0 0-.952-.191zM70.475 79.359l-14.897 9.918a.687.687 0 0 0-.191.952l.003.004c.21.316.636.401.952.19l14.897-9.917a.687.687 0 0 0 .19-.952l-.002-.004a.687.687 0 0 0-.952-.191zM78.85 91.94l-14.896 9.918a.687.687 0 0 0-.191.952l.003.004c.21.316.636.401.952.191l14.897-9.918a.687.687 0 0 0 .19-.952l-.002-.004a.687.687 0 0 0-.952-.191z"/></g><g opacity=".57" fill="#F3C74A"><path opacity=".57" d="M29.305 25.288l-7.58 5.046a.686.686 0 0 0-.19.952l.003.005c.21.315.636.4.952.19l7.58-5.046a.687.687 0 0 0 .19-.951l-.003-.005a.687.687 0 0 0-.952-.19zM37.68 37.87l-7.579 5.046a.686.686 0 0 0-.19.952l.002.004c.21.316.636.401.952.191l7.58-5.046a.686.686 0 0 0 .19-.952l-.002-.004a.687.687 0 0 0-.952-.191zM45.903 50.554l-7.58 5.046a.687.687 0 0 0-.191.952l.003.004c.21.316.636.402.952.191l7.58-5.046a.687.687 0 0 0 .19-.952l-.002-.004a.687.687 0 0 0-.952-.191zM54.279 63.135l-7.58 5.046a.687.687 0 0 0-.191.952l.003.004c.21.316.636.401.952.191l7.58-5.046a.687.687 0 0 0 .19-.952l-.003-.004a.687.687 0 0 0-.951-.191zM62.651 75.712l-7.579 5.046a.686.686 0 0 0-.191.952l.003.004c.21.316.636.401.952.191l7.58-5.046a.686.686 0 0 0 .19-.952l-.003-.004a.687.687 0 0 0-.952-.191zM71.028 88.293l-7.58 5.046a.687.687 0 0 0-.19.952l.002.004c.21.316.637.401.952.191l7.58-5.046a.687.687 0 0 0 .19-.952l-.002-.004a.687.687 0 0 0-.952-.191zM79.404 100.874l-7.58 5.046a.687.687 0 0 0-.19.952l.002.004c.21.316.637.401.952.191l7.58-5.046a.687.687 0 0 0 .19-.952l-.002-.004a.686.686 0 0 0-.952-.191z"/></g><path d="M44.142 56.6a.862.862 0 0 1 1.195.24l50.443 75.766-1.435.955-50.443-75.766a.861.861 0 0 1 .24-1.195z" fill="#EA4143"/><path d="M95.318 123.351l-1.861 1.239 4.291 6.445 1.86-1.239-4.29-6.445z" fill="#F8EEC8"/></g><defs><clipPath id="clip0"><path fill="#fff" transform="rotate(-33.655 25.539 7.724)" d="M0 0h27.875v171.874H0z"/></clipPath></defs></svg>
